!!!OTL: Doran's Ass
!!!ONM: 75.
**kern
*clefG2
*k[b-]
*F:
*M4/4
*>[A,A1,A,A2]
*>norep[A,A2]
*>A
=1!|:
*MM132
{4d
4f
4f
4f
=2
4b-
4b-
4b-
4cc}
=3
{4dd
8dd
8dd
4cc
4b-
=4
4g
4f
4f
4f}
=5
{4d
4f
4f
8f
8f
=6
4b-
4b-
4b-
8dd}
{8dd
=7
4dd
4dd
4cc
8b-
8b-
*>A1
=8
!! ending 1
4g
4f
4f
4r}
*>A2
=9:|!
!! ending 2
4g
4f
4f}
=||
{4f
=10
4d
4f
4f
4f
=11
4b-
4b-
4b-
4dd}
=12
{4dd
4dd
8dd
8cc
4b-
=13
4g
4f
4f
4r}
==
*-
!!!CNT: Folksongs of Maritime Canada
!!!MRD: 1928///-1932///
!!!OCL: Helen Creighton
!!!YOR: Songs and Ballads from Nova Scotia
!!!PPR: J.M. Dent & Sons, Limited
!!!PPP: Toronto, Canada
!!!PDT: 1932///
!!!reprint: Dover Publications, 1992: ISBN 0-486-21703-5
!!!ENC1: Craig Stuart Sapp (music and bibliographic data)                       
!!!ENC2: Marcus Pearce (phrase markings and key designations)                   
!!!ENC3: Darrell Conklin (phrase markings and key designations)   
!!!END: 2002/04/10/
!!!EEV: 2004/06/05
!!!MPN: Mr. Ben Henneberry
!!!PPG: 163
!!!EFL: 76/152
!!!ARE: Canada; Nova Scotia
!!!verses: 6
!! ending 1
!! ending 2
!!!VTS: 3103914238
